assets/images/placeholder.svg

<?xml version="1.0" encoding="UTF-8" standalone="no"?>
<svg width="200px" height="200px" viewBox="0 0 200 200" version="1.1" xmlns="http://www.w3.org/2000/svg" xmlns:xlink="http://www.w3.org/1999/xlink">
    <!-- Generator: Sketch 39.1 (31720) - http://www.bohemiancoding.com/sketch -->
    <title>Venue BW</title>
    <desc>Created with Sketch.</desc>
    <defs>
        <rect id="path-1" x="30" y="111" width="15" height="25"></rect>
        <mask id="mask-2" maskContentUnits="userSpaceOnUse" maskUnits="objectBoundingBox" x="0" y="0" width="15" height="25" fill="white">
            <use xlink:href="#path-1"></use>
        </mask>
        <rect id="path-3" x="55" y="111" width="15" height="25"></rect>
        <mask id="mask-4" maskContentUnits="userSpaceOnUse" maskUnits="objectBoundingBox" x="0" y="0" width="15" height="25" fill="white">
            <use xlink:href="#path-3"></use>
        </mask>
        <rect id="path-5" x="80" y="111" width="15" height="25"></rect>
        <mask id="mask-6" maskContentUnits="userSpaceOnUse" maskUnits="objectBoundingBox" x="0" y="0" width="15" height="25" fill="white">
            <use xlink:href="#path-5"></use>
        </mask>
        <rect id="path-7" x="105" y="111" width="15" height="25"></rect>
        <mask id="mask-8" maskContentUnits="userSpaceOnUse" maskUnits="objectBoundingBox" x="0" y="0" width="15" height="25" fill="white">
            <use xlink:href="#path-7"></use>
        </mask>
        <rect id="path-9" x="130" y="111" width="15" height="25"></rect>
        <mask id="mask-10" maskContentUnits="userSpaceOnUse" maskUnits="objectBoundingBox" x="0" y="0" width="15" height="25" fill="white">
            <use xlink:href="#path-9"></use>
        </mask>
        <rect id="path-11" x="155" y="111" width="15" height="25"></rect>
        <mask id="mask-12" maskContentUnits="userSpaceOnUse" maskUnits="objectBoundingBox" x="0" y="0" width="15" height="25" fill="white">
            <use xlink:href="#path-11"></use>
        </mask>
        <rect id="path-13" x="130" y="145" width="15" height="25"></rect>
        <mask id="mask-14" maskContentUnits="userSpaceOnUse" maskUnits="objectBoundingBox" x="0" y="0" width="15" height="25" fill="white">
            <use xlink:href="#path-13"></use>
        </mask>
        <rect id="path-15" x="155" y="145" width="15" height="25"></rect>
        <mask id="mask-16" maskContentUnits="userSpaceOnUse" maskUnits="objectBoundingBox" x="0" y="0" width="15" height="25" fill="white">
            <use xlink:href="#path-15"></use>
        </mask>
        <rect id="path-17" x="31" y="145" width="15" height="25"></rect>
        <mask id="mask-18" maskContentUnits="userSpaceOnUse" maskUnits="objectBoundingBox" x="0" y="0" width="15" height="25" fill="white">
            <use xlink:href="#path-17"></use>
        </mask>
        <rect id="path-19" x="56" y="145" width="15" height="25"></rect>
        <mask id="mask-20" maskContentUnits="userSpaceOnUse" maskUnits="objectBoundingBox" x="0" y="0" width="15" height="25" fill="white">
            <use xlink:href="#path-19"></use>
        </mask>
        <rect id="path-21" x="20" y="100" width="161" height="80"></rect>
        <mask id="mask-22" maskContentUnits="userSpaceOnUse" maskUnits="objectBoundingBox" x="0" y="0" width="161" height="80" fill="white">
            <use xlink:href="#path-21"></use>
        </mask>
        <polygon id="path-23" points="28.05 84 171.608333 84 181 103 20 103"></polygon>
        <mask id="mask-24" maskContentUnits="userSpaceOnUse" maskUnits="objectBoundingBox" x="0" y="0" width="161" height="19" fill="white">
            <use xlink:href="#path-23"></use>
        </mask>
    </defs>
    <g id="Page-1" stroke="none" stroke-width="1" fill="none" fill-rule="evenodd">
        <g id="Venue-BW">
            <use id="Rectangle-8" stroke="#4A4A4A" mask="url(#mask-2)" stroke-width="6" xlink:href="#path-1"></use>
            <use id="Rectangle-8" stroke="#4A4A4A" mask="url(#mask-4)" stroke-width="6" xlink:href="#path-3"></use>
            <use id="Rectangle-8" stroke="#4A4A4A" mask="url(#mask-6)" stroke-width="6" xlink:href="#path-5"></use>
            <use id="Rectangle-8" stroke="#4A4A4A" mask="url(#mask-8)" stroke-width="6" xlink:href="#path-7"></use>
            <use id="Rectangle-8" stroke="#4A4A4A" mask="url(#mask-10)" stroke-width="6" xlink:href="#path-9"></use>
            <use id="Rectangle-8" stroke="#4A4A4A" mask="url(#mask-12)" stroke-width="6" xlink:href="#path-11"></use>
            <use id="Rectangle-8" stroke="#4A4A4A" mask="url(#mask-14)" stroke-width="6" xlink:href="#path-13"></use>
            <use id="Rectangle-8" stroke="#4A4A4A" mask="url(#mask-16)" stroke-width="6" xlink:href="#path-15"></use>
            <use id="Rectangle-8" stroke="#4A4A4A" mask="url(#mask-18)" stroke-width="6" xlink:href="#path-17"></use>
            <use id="Rectangle-8" stroke="#4A4A4A" mask="url(#mask-20)" stroke-width="6" xlink:href="#path-19"></use>
            <use id="Rectangle-6" stroke="#4A4A4A" mask="url(#mask-22)" stroke-width="6" xlink:href="#path-21"></use>
            <rect id="Rectangle-7" fill="#4A4A4A" x="80" y="143" width="18" height="37"></rect>
            <rect id="Rectangle-7" fill="#4A4A4A" x="102" y="143" width="18" height="37"></rect>
            <use id="Rectangle-6" stroke="#4A4A4A" mask="url(#mask-24)" stroke-width="6" xlink:href="#path-23"></use>
            <g id="Group" transform="translate(119.646850, 56.133091) rotate(1.000000) translate(-119.646850, -56.133091) translate(69.646850, 18.633091)">
                <path d="M-4.26325641e-14,74.4686242 C-4.26325641e-14,74.4686242 10.3938461,27.7537959 10.7515522,27.0511715 C11.1097551,26.348547 12.579331,25.6160872 12.579331,25.6160872 L2.24510255,73.6391992 L-4.26325641e-14,74.4686242 L-4.26325641e-14,74.4686242 Z" id="Shape" stroke="#4A4A4A" stroke-width="3"></path>
                <path d="M45.252208,16.8088581 C71.858586,22.3015612 91.8881399,0.301410583 92.0908401,0.00653705939 C92.2930434,-0.288833722 89.2281977,9.52354275 89.2281977,9.52354275 C89.2281977,9.52354275 94.8541196,9.33408775 99.1376501,7.10687272 C103.423168,4.8806522 85.1945647,34.7459201 61.5983828,40.1675154 C49.085625,43.4499102 37.5163169,42.7373406 28.3843784,40.3067474 C25.2504756,39.6264995 15.0429348,36.9020273 7.21861079,41.2400992 L11.2830463,20.928634 C11.2830463,20.928634 18.643346,11.318144 45.252208,16.8088581 Z" id="Shape" stroke="#E42D40" stroke-width="3" fill="#E42D40"></path>
                <path d="M17.8129678,23.2531883 C17.8020379,24.702693 17.7871334,27.1984269 17.3087015,30.461926 C16.1317491,35.7860589 19.5180335,34.3261117 20.1301084,32.1108309 C20.5404767,30.8458086 20.9374311,29.5365303 20.9374311,29.5365303 L24.3157665,30.1665552 C24.3157665,30.1665552 24.3023525,31.650868 24.2730405,32.8800878 C23.830876,36.1415978 26.6820916,35.25648 27.0566894,32.806991 C27.2256062,31.5598699 27.9877189,26.3670129 28.0120628,23.6634255 C28.4060363,21.8494312 25.7684507,20.7813227 25.1802229,23.6519885 C24.7877398,24.7708173 24.2457157,27.0716264 24.2457157,27.0716264 C24.2457157,27.0716264 21.4595827,26.5584569 21.4168567,26.4689506 C21.2901691,26.2004317 21.4789584,25.4843814 21.3547549,24.8280018 C20.4013688,20.4755095 17.828369,21.319355 17.8129678,23.2531883 L17.8129678,23.2531883 Z" id="Shape" stroke="#FFFFFF" stroke-width="0.25" fill="#FFFFFF"></path>
                <path d="M32.0034015,24.7224019 C32.3844579,22.9218336 33.2658059,22.4295489 33.941473,22.3345728 C34.238071,22.2928032 34.7746301,22.7607222 35.2232532,23.2848313 C37.1643055,26.8367396 37.0937579,34.2190201 36.9288157,34.7495935 C36.3013396,36.7739276 34.2971918,36.9444868 34.529204,34.8261711 C34.5709364,33.5939678 34.7011016,32.4159654 34.7011016,32.4159654 L32.156917,32.7461442 C31.1508687,37.0036604 29.0418931,35.8704113 29.6335986,33.9957516 C30.2138774,31.8704743 31.5006257,27.0997886 32.0034015,24.7224019 L32.0034015,24.7224019 Z M32.4366233,29.7998953 L34.9798143,29.5850802 C34.9798143,29.5850802 34.5967707,25.089875 33.9553838,25.7696256 L32.4366233,29.7998953 L32.4366233,29.7998953 Z" id="Shape" stroke="#FFFFFF" stroke-width="0.25" fill="#FFFFFF"></path>
                <path d="M45.2599281,24.5171759 C45.3453801,23.51023 44.1878034,21.6415375 41.875631,22.5952768 C38.4287353,23.486859 38.7243396,29.7607531 38.7243396,29.7607531 C38.7243396,29.7602559 38.8947469,32.7915358 40.2555204,34.5294498 C41.5546891,36.2360365 43.5166077,35.7313204 43.9090907,35.6810974 C46.0011746,34.4618228 44.8490629,33.132157 44.4655224,33.1987895 C43.9786447,33.2828259 43.323347,33.5394107 42.7013359,33.253985 C41.5939374,32.7462854 41.2933649,30.8800791 41.2854159,29.8368335 C41.3211865,28.0447185 41.5387911,24.4560133 43.3591176,24.8433766 C44.653815,25.8075583 45.2087562,25.1029449 45.2599281,24.5171759 L45.2599281,24.5171759 Z" id="Shape" stroke="#FFFFFF" stroke-width="0.25" fill="#FFFFFF"></path>
                <path d="M47.5653894,24.5504871 C47.4272751,26.5599034 48.6499344,28.2799161 48.0174901,32.134654 C47.8600001,33.0938631 47.3810714,34.8725522 47.3159887,35.1286396 C46.8658752,36.9167766 48.7900359,37.4080667 50.0077271,34.1928016 C50.2899174,33.4359761 50.4021974,31.7139744 50.4021974,31.7139744 L51.1990871,31.4051777 C51.1990871,31.4051777 52.671147,34.3628635 53.1699483,35.6154544 C53.6687496,36.8670508 56.1384121,37.0137417 55.534783,34.4553534 C55.2471277,33.6284146 54.634556,32.5061051 53.7194246,31.1490902 C53.7194246,31.1490902 53.0606492,30.16651 52.6532617,30.0949049 C52.6532617,30.0949049 54.6062376,26.9214094 54.6141867,25.8498202 C54.6231293,24.7772364 53.961373,24.1526813 52.3680905,26.3455856 C50.7767952,28.5389871 50.683891,29.1406684 50.683891,29.1406684 C50.683891,29.1406684 50.6501076,26.905 50.1771407,25.3301864 C49.9202878,23.6673583 47.7218858,22.9304231 47.5653894,24.5504871 L47.5653894,24.5504871 Z" id="Shape" stroke="#FFFFFF" stroke-width="0.25" fill="#FFFFFF"></path>
                <path d="M58.3117347,24.1573706 C57.6693542,25.1971354 57.514845,26.8947715 58.1751109,29.2403337 C59.1583058,32.7395327 61.1579822,34.3382146 63.5675302,33.3098867 C65.9770782,32.2805643 64.9481764,30.6470744 64.7246101,30.6271841 C64.503031,30.6062993 64.4121141,30.4431989 63.4910209,31.0866497 C62.5689341,31.7310951 61.6513186,31.4899253 60.6234104,30.1015832 C59.929858,29.1667397 59.184637,27.1453891 59.6779733,25.846056 C59.8081386,25.461179 60.0128259,25.2781883 60.1116919,25.1782396 C60.4992069,24.792368 61.0387469,24.9112125 61.1579822,24.9887846 C62.700093,25.6028973 62.7189719,24.4795932 61.9782222,23.7043693 C60.7257541,22.6631127 59.4618592,22.7118439 58.3117347,24.1573706 L58.3117347,24.1573706 Z" id="Shape" stroke="#FFFFFF" stroke-width="0.25" fill="#FFFFFF"></path>
                <path d="M64.3723131,23.881225 C64.0354732,22.5515592 65.1448589,21.1279118 66.4112378,24.0169762 C67.487337,25.8090912 69.2599694,29.261548 69.3871538,29.8065419 C69.3871538,29.8065419 70.2873808,30.0029585 72.3675411,28.9771168 C72.3675411,28.9771168 73.3422902,28.6330149 73.2811821,29.284919 C73.2210676,29.9368232 72.7078587,30.1282673 72.5906106,30.2132983 C72.4748529,30.297832 67.727795,32.5548824 67.4490823,31.8860715 C67.1703697,31.216266 67.2717197,30.8448149 66.4330977,28.7339581 C65.1706932,26.125844 64.7101466,25.2108908 64.3723131,23.881225 L64.3723131,23.881225 Z" id="Shape" stroke="#FFFFFF" stroke-width="0.25" fill="#FFFFFF"></path>
                <path d="M70.2972685,21.6607727 C69.9470147,20.7214538 70.8134583,19.8741275 71.637176,20.7597426 C72.2845246,21.4573945 73.6944828,24.8452078 74.7745565,26.1236561 C75.3225423,26.6079846 76.1815338,26.4995826 76.4021192,25.8650824 C76.6281696,24.8969226 75.828299,22.94121 75.0950015,21.3524732 C74.6915885,20.6036039 74.4829267,20.0014254 74.4148631,19.5409652 C74.1957681,18.0153801 75.531701,18.0392484 76.4701827,19.4256015 C77.3401041,21.0063822 78.3531079,23.7224011 78.3565856,24.7258661 C78.3590696,25.7288339 78.4042797,26.9545729 77.2412381,27.5731609 C76.9411624,27.7327804 74.3949906,28.7879602 72.7689183,26.1122192 C71.1453301,23.4379699 70.6475224,22.6005888 70.2972685,21.6607727 L70.2972685,21.6607727 Z" id="Shape" stroke="#FFFFFF" stroke-width="0.25" fill="#FFFFFF"></path>
                <path d="M77.379858,16.3802407 C78.7754086,15.0127834 79.8932401,14.3588902 80.9643711,14.4603306 C81.6231465,14.6418295 82.1890177,15.5100406 82.2580748,16.3315095 C82.2421768,17.070931 82.094623,17.7064257 82.094623,17.7064257 C83.0768243,17.5587403 83.5920205,18.3374451 83.5920205,18.3374451 C85.7645882,21.2230287 84.1424904,22.2409142 82.0792218,23.5148871 C81.3980898,23.8893218 80.5788435,24.0951863 80.4938883,23.8420824 C80.3309333,23.3642182 76.9724705,17.8163195 76.9724705,17.8163195 C76.8035537,17.5398445 76.4940386,17.1748577 77.379858,16.3802407 L77.379858,16.3802407 Z M78.309397,17.2847516 L79.5822345,18.9953164 C79.5822345,18.9953164 81.392128,17.7143818 80.887365,16.692021 C80.385086,15.6706547 79.2911015,16.6184269 78.309397,17.2847516 L78.309397,17.2847516 Z M80.2673411,20.3483532 C80.2673411,20.3483532 81.397593,22.5561752 81.3618224,22.422413 C81.3270454,22.2886509 83.7798162,20.9241771 82.7931435,19.5974948 C81.8059741,18.2708126 80.2673411,20.3483532 80.2673411,20.3483532 L80.2673411,20.3483532 Z" id="Shape" stroke="#FFFFFF" stroke-width="0.25" fill="#FFFFFF"></path>
            </g>
        </g>
    </g>
</svg>

<?xml version="1.0" encoding="UTF-8"?>
<svg version="1.1" viewBox="0 0 200 200" xmlns="http://www.w3.org/2000/svg" xmlns:xlink="http://www.w3.org/1999/xlink">
<title>Venue BW</title>
<desc>Created with Sketch.</desc>
<defs>
<rect id="l" x="30" y="111" width="15" height="25"/>
<mask id="s" x="0" y="0" width="15" height="25" fill="white">
<use xlink:href="#l"/>
</mask>
<rect id="d" x="55" y="111" width="15" height="25"/>
<mask id="o" x="0" y="0" width="15" height="25" fill="white">
<use xlink:href="#d"/>
</mask>
<rect id="c" x="80" y="111" width="15" height="25"/>
<mask id="n" x="0" y="0" width="15" height="25" fill="white">
<use xlink:href="#c"/>
</mask>
<rect id="b" x="105" y="111" width="15" height="25"/>
<mask id="m" x="0" y="0" width="15" height="25" fill="white">
<use xlink:href="#b"/>
</mask>
<rect id="a" x="130" y="111" width="15" height="25"/>
<mask id="x" x="0" y="0" width="15" height="25" fill="white">
<use xlink:href="#a"/>
</mask>
<rect id="k" x="155" y="111" width="15" height="25"/>
<mask id="w" x="0" y="0" width="15" height="25" fill="white">
<use xlink:href="#k"/>
</mask>
<rect id="j" x="130" y="145" width="15" height="25"/>
<mask id="v" x="0" y="0" width="15" height="25" fill="white">
<use xlink:href="#j"/>
</mask>
<rect id="i" x="155" y="145" width="15" height="25"/>
<mask id="u" x="0" y="0" width="15" height="25" fill="white">
<use xlink:href="#i"/>
</mask>
<rect id="h" x="31" y="145" width="15" height="25"/>
<mask id="t" x="0" y="0" width="15" height="25" fill="white">
<use xlink:href="#h"/>
</mask>
<rect id="g" x="56" y="145" width="15" height="25"/>
<mask id="r" x="0" y="0" width="15" height="25" fill="white">
<use xlink:href="#g"/>
</mask>
<rect id="f" x="20" y="100" width="161" height="80"/>
<mask id="q" x="0" y="0" width="161" height="80" fill="white">
<use xlink:href="#f"/>
</mask>
<polygon id="e" points="28.05 84 171.61 84 181 103 20 103"/>
<mask id="p" x="0" y="0" width="161" height="19" fill="white">
<use xlink:href="#e"/>
</mask>
</defs>
<g fill="none" fill-rule="evenodd">
<use mask="url(#s)" stroke="#4A4A4A" stroke-width="6" xlink:href="#l"/>
<use mask="url(#o)" stroke="#4A4A4A" stroke-width="6" xlink:href="#d"/>
<use mask="url(#n)" stroke="#4A4A4A" stroke-width="6" xlink:href="#c"/>
<use mask="url(#m)" stroke="#4A4A4A" stroke-width="6" xlink:href="#b"/>
<use mask="url(#x)" stroke="#4A4A4A" stroke-width="6" xlink:href="#a"/>
<use mask="url(#w)" stroke="#4A4A4A" stroke-width="6" xlink:href="#k"/>
<use mask="url(#v)" stroke="#4A4A4A" stroke-width="6" xlink:href="#j"/>
<use mask="url(#u)" stroke="#4A4A4A" stroke-width="6" xlink:href="#i"/>
<use mask="url(#t)" stroke="#4A4A4A" stroke-width="6" xlink:href="#h"/>
<use mask="url(#r)" stroke="#4A4A4A" stroke-width="6" xlink:href="#g"/>
<use mask="url(#q)" stroke="#4A4A4A" stroke-width="6" xlink:href="#f"/>
<rect x="80" y="143" width="18" height="37" fill="#4A4A4A"/>
<rect x="102" y="143" width="18" height="37" fill="#4A4A4A"/>
<use mask="url(#p)" stroke="#4A4A4A" stroke-width="6" xlink:href="#e"/>
<g transform="translate(119.65 56.133) rotate(1) translate(-50 -37.5)">
<path d="m-4.2633e-14 74.469s10.394-46.715 10.752-47.417c0.3582-0.70262 1.8278-1.4351 1.8278-1.4351l-10.334 48.023-2.2451 0.82942z" stroke="#4A4A4A" stroke-width="3"/>
<path d="m45.252 16.809c26.606 5.4927 46.636-16.507 46.839-16.802 0.2022-0.29537-2.8626 9.517-2.8626 9.517s5.6259-0.18946 9.9095-2.4167c4.2855-2.2262-13.943 27.639-37.539 33.061-12.513 3.2824-24.082 2.5698-33.214 0.13923-3.1339-0.68025-13.341-3.4047-21.166 0.93335l4.0644-20.311s7.3603-9.6105 33.969-4.1198z" fill="#E42D40" stroke="#E42D40" stroke-width="3"/>
<path d="m17.813 23.253c-0.01093 1.4495-0.025834 3.9452-0.50427 7.2087-1.177 5.3241 2.2093 3.8642 2.8214 1.6489 0.41037-1.265 0.80732-2.5743 0.80732-2.5743l3.3783 0.63002s-0.013414 1.4843-0.042726 2.7135c-0.44216 3.2615 2.4091 2.3764 2.7836-0.073097 0.16892-1.2471 0.93103-6.44 0.95537-9.1436 0.39397-1.814-2.2436-2.8821-2.8318-0.011437-0.39248 1.1188-0.93451 3.4196-0.93451 3.4196s-2.7861-0.51317-2.8289-0.60268c-0.12669-0.26852 0.062102-0.98457-0.062102-1.6409-0.95339-4.3525-3.5264-3.5086-3.5418-1.5748z" fill="#fff" stroke="#fff" stroke-width=".25"/>
<path d="m32.003 24.722c0.38106-1.8006 1.2624-2.2929 1.9381-2.3878 0.2966-0.04177 0.83316 0.42615 1.2818 0.95026 1.9411 3.5519 1.8705 10.934 1.7056 11.465-0.62748 2.0243-2.6316 2.1949-2.3996 0.076578 0.041732-1.2322 0.1719-2.4102 0.1719-2.4102l-2.5442 0.33018c-1.006 4.2575-3.115 3.1243-2.5233 1.2496 0.58028-2.1253 1.867-6.896 2.3698-9.2733zm0.43322 5.0775l2.5432-0.21482s-0.38304-4.4952-1.0244-3.8155l-1.5188 4.0303z" fill="#fff" stroke="#fff" stroke-width=".25"/>
<path d="m45.26 24.517c0.085452-1.0069-1.0721-2.8756-3.3843-1.9219-3.4469 0.89158-3.1513 7.1655-3.1513 7.1655 0-4.972e-4 0.17041 3.0308 1.5312 4.7687 1.2992 1.7066 3.2611 1.2019 3.6536 1.1516 2.0921-1.2193 0.93997-2.5489 0.55643-2.4823-0.48688 0.084036-1.1422 0.34062-1.7642 0.055196-1.1074-0.5077-1.408-2.3739-1.4159-3.4172 0.035771-1.7921 0.25338-5.3808 2.0737-4.9935 1.2947 0.96418 1.8496 0.25957 1.9008-0.3262z" fill="#fff" stroke="#fff" stroke-width=".25"/>
<path d="m47.565 24.55c-0.13811 2.0094 1.0845 3.7294 0.4521 7.5842-0.15749 0.95921-0.63642 2.7379-0.7015 2.994-0.45011 1.7881 1.474 2.2794 2.6917-0.93584 0.28219-0.75683 0.39447-2.4788 0.39447-2.4788l0.79689-0.3088s1.4721 2.9577 1.9709 4.2103c0.4988 1.2516 2.9685 1.3983 2.3648-1.1601-0.28766-0.82694-0.90023-1.9492-1.8154-3.3063 0 0-0.65878-0.98258-1.0662-1.0542 0 0 1.953-3.1735 1.9609-4.2451 0.0089426-1.0726-0.65281-1.6971-2.2461 0.49577-1.5913 2.1934-1.6842 2.7951-1.6842 2.7951s-0.033783-2.2357-0.50675-3.8105c-0.25685-1.6628-2.4553-2.3998-2.6118-0.7797z" fill="#fff" stroke="#fff" stroke-width=".25"/>
<path d="m58.312 24.157c-0.64238 1.0398-0.79689 2.7374-0.13662 5.083 0.98319 3.4992 2.9829 5.0979 5.3924 4.0696 2.4095-1.0293 1.3806-2.6628 1.1571-2.6827-0.22158-0.020885-0.3125-0.18399-1.2336 0.45947-0.92209 0.64445-1.8397 0.40328-2.8676-0.98507-0.69355-0.93484-1.4388-2.9562-0.94544-4.2555 0.13017-0.38488 0.33485-0.56787 0.43372-0.66782 0.38752-0.38587 0.92706-0.26703 1.0463-0.18946 1.5421 0.61411 1.561-0.50919 0.82024-1.2844-1.2525-1.0413-2.5164-0.99253-3.6665 0.453z" fill="#fff" stroke="#fff" stroke-width=".25"/>
<path d="m64.372 23.881c-0.33684-1.3297 0.77255-2.7533 2.0389 0.13575 1.0761 1.7921 2.8487 5.2446 2.9759 5.7896 0 0 0.90023 0.19642 2.9804-0.82943 0 0 0.97475-0.3441 0.91364 0.3078-0.060114 0.6519-0.57332 0.84335-0.69057 0.92838-0.11576 0.084534-4.8628 2.3416-5.1415 1.6728-0.27871-0.66981-0.17736-1.0413-1.016-3.1521-1.2624-2.6081-1.723-3.5231-2.0608-4.8527z" fill="#fff" stroke="#fff" stroke-width=".25"/>
<path d="m70.297 21.661c-0.35025-0.93932 0.51619-1.7866 1.3399-0.90103 0.64735 0.69765 2.0573 4.0855 3.1374 5.3639 0.54799 0.48433 1.407 0.37593 1.6276-0.25857 0.22605-0.96816-0.57382-2.9239-1.3071-4.5126-0.40341-0.74887-0.61207-1.351-0.68014-1.8115-0.2191-1.5256 1.1168-1.5017 2.0553-0.11536 0.86992 1.5808 1.8829 4.2968 1.8864 5.3003 0.002484 1.003 0.047694 2.2287-1.1153 2.8473-0.30008 0.15962-2.8462 1.2148-4.4723-1.4609-1.6236-2.6742-2.1214-3.5116-2.4716-4.4514z" fill="#fff" stroke="#fff" stroke-width=".25"/>
<path d="m77.38 16.38c1.3956-1.3675 2.5134-2.0214 3.5845-1.9199 0.65878 0.1815 1.2246 1.0497 1.2937 1.8712-0.015898 0.73942-0.16345 1.3749-0.16345 1.3749 0.9822-0.14769 1.4974 0.63102 1.4974 0.63102 2.1726 2.8856 0.55047 3.9035-1.5128 5.1774-0.68113 0.37443-1.5004 0.5803-1.5853 0.3272-0.16296-0.47786-3.5214-6.0258-3.5214-6.0258-0.16892-0.27648-0.47843-0.64146 0.40739-1.4361zm0.92954 0.90451l1.2728 1.7106s1.8099-1.2809 1.3051-2.3033c-0.50228-1.0214-1.5963-0.073594-2.578 0.59273zm1.9579 3.0636s1.1303 2.2078 1.0945 2.0741c-0.034777-0.13376 2.418-1.4982 1.4313-2.8249-0.98717-1.3267-2.5258 0.75086-2.5258 0.75086z" fill="#fff" stroke="#fff" stroke-width=".25"/>
</g>
</g>
</svg>
